-----BEGIN PGP SIGNATURE-----
Version: BCPG v1.69

iQIcBAABCgAGBQJqtFnwAAoJEBmTXpThYMSQZJoP/2S2AqdnuLINjE2/Bzfg92p5
i7O5hJr9qvi2vN55APKPV2JyHpM+KdgGYCMaZ9w+mr+9EpWGv0r6qvpYYs/oj+am
omruabeCNgLntIbS8MvT3JJmKUHqK8SGrhdVHxUyLWfdn76VubGEAfr7dmXpMgbS
agov8QLCuU9E1uD2ksiYzBtVJGjD3yzyh494eYgimYrUhNFXBPf0hC9E8zC3SXGp
N448aSwy4fK/A9R3FIgc7TC4Gn1pgp/7bizUbgyiM9xfVk5rLkbYoRG49X3qxP0e
IFFTEcL2Z561Eq+jDXE/4vhD82BUD3Nr6KDdQTjNDio5sDou/cUWrJZthq0eXI6Q
+jiGmGVl6AqJskHyY17cHrHIvUW++T3jZ4yH5mNUXnP0UnUkhmjzQSaHUoMJUpeE
OiMTde4grZAbsWm/23RLMv8usQU3ccZkfJntjwmKdZ/dqip8liMjIdwBPgX3sslD
fwWC9BtAxUSbxWuosW1tRf3G4H86jSg3A8FCrmm4u5EOSWDGP6u9XLBuoAgJFTRO
a38VwwpSuCi5bGT6iCBNN9Lsubztfc/ZMztgFW5ejB5x26CmTO+r22e+lEmeWAL3
VCFVwJjz2POBHjP/9cmWIsq6yPFUiXbfoY0ZNp2TRyBq4VUMlJNJhMOZpZjnJtGI
UhU5goGg/SmOHph5Wfjg
=7ekS
-----END PGP SIGNATURE-----
