-----BEGIN PGP SIGNED MESSAGE-----
Hash: SHA512

46da0ec2c2b0951c29c1f56dea3ac420a8ab295d2cb6c653e552faaea236dba56d614b6a53b0a8c87caf50573173b5dd9f3c829489ebc08569306fb506ea1ff4
-----BEGIN PGP SIGNATURE-----
Version: BCPG v1.69

iQJWBAEBCgBABQJqevKgORxEb2N1bWVudFN0YW1wZXJBcHAgKDIwMjEpIDxkb2N1
bWVudHN0YW1wZXJhcHBAZ21haWwuY29tPgAKCRAZk16U4WDEkBynD/0c3sfzOdaC
5o7PLETEWX2vIDIV2Au0o8T2MyfuJXqDjW/e5malcT4QfAxkucl1T/jUt4Thxp2X
7ACPIrM6QrZzV9Bl5H5nd83K2RlOR/ksNZTqNYmXP/qOOtkEWmCLYFV8BRq+6baY
nc6Io5hNYR8E6Z6qpzJt5WSXpLOes1a7A3pDqxOl918rIs3+xJShJ4VF51gcVrQ6
kdpVNB4lRpZPVD5wpDUCsmcONSuA4EPUNC0jnIrkVWTrdzPt09IyVyqM0bGGkWB5
TG4Ib45C9lbGs3hCclZ/9Xe3DHDP4wqeXRFaS7t9vc2pqOWKaYvLBwvoCNkI2JZo
IqhaHoN2qrqd3qNKxHr69k7yKijg6+1Sxv5jRd68Pp1lBwtvkYomICiIgb17hVxz
nLIcLvZNVuKWAeKLBGlMrdv9ZkxzvmhyVRnZcxfVPxpMKmy1Xtpmofjy16Pl7n2O
Vls2AwNhXyICNpspDa1XWRx46Vu5AT14yG7kIAv8dsDVi1D+OdvanX6Jtmqql5k7
S3S6aPe5VesdPjIuIMeDf94Sc+8UYc5TsTQu4knfcsij0meMy6HY+z2L07Dk7LpI
BgDqugaMzzb7KQ07w1lZfygaKRPlplfHFM1BqX4g2gTR+ikFol+irXvHxtCztlZB
skP2s2/4yPessFaRNq9+WJJIXPsw/nXBng==
=HsPU
-----END PGP SIGNATURE-----
