-----BEGIN PGP SIGNATURE-----
Version: BCPG v1.69

iQIcBAABCgAGBQJqj34AAAoJEBmTXpThYMSQ078P/2vOfYxsoacUJNkBzCvFTf3e
oPPZnITkXPm8CQk7f+ZYzOv9wLQdgQwmfUjhXwlu10AJcICZ6Utqv6VPXcr7ivVi
uYZjLvTU3A5OfYW8qvwVMMdYTbrobvAMWbKyY4XGXO7jN9qktB+x28X/XUJTcGGL
f4qeLceSSZHLnNX8O1gfTJchC0Wv8pHJ5mBoPDcKf6eDNfWmEkKZlkgnnb3HRqfk
I5/ZyToHi/mUqGdiczWN4bqTmqRjeu7B/5ZY+maLF9zEmkHQXQzAB3dUnHhvQmmw
bFddNVm5c3z93fuHv4TYt5YDL+FLj0OFWRZuOJdFD21nCLTTD09B29oYb8N6gIWq
BzFsOezTsyG93IXMizCmdIAadxLbm7koUKgYpgNk7Lpd6n3t4V+OC9Dv/ZdHYC5c
No7W4iL/KgHiXrJaHZwBFF31az3pY/iIeQ1oitHZGr7wk5m9HF/YNqbFd6r+YrMo
fId39H0FJbVmlz7ydCW3DneILgmCWGJ7lE81gaKd0SkPO1E84D2J+wqG0inTZ0ti
V+Cbuu8U7SNKM7DN+MKXPH1gtUmd9oTTlcyhJePf4xknR0TCoKVCt8yHQmQYp3mX
PHYML5OY8NYN1AB6ouUauoSRc8KKDf7WJnn17W/pTPui/MMtL4FbSh2+NAar59aa
bKMXxwhTsEIJsCjAoSCv
=KqLL
-----END PGP SIGNATURE-----
