-----BEGIN PGP SIGNED MESSAGE-----
Hash: SHA512

7fc1231803f04f33dfbf98d7f842ac1cbbfe83deb9c6b06e1102f20a49919f30691f5cd1eefbfdf0a254cb95b40ad9bd3bcf49349e43990090fd9b5fb81b76a1
-----BEGIN PGP SIGNATURE-----
Version: BCPG v1.69

iQJWBAEBCgBABQJqgnkwORxEb2N1bWVudFN0YW1wZXJBcHAgKDIwMjEpIDxkb2N1
bWVudHN0YW1wZXJhcHBAZ21haWwuY29tPgAKCRAZk16U4WDEkIO/D/98F23kxDCt
x+P9Mdq12nMBURKNBylF9j3bzL+jVcOpxzyBdNa8OASph4O+E0Vg9ghXg/X+KZ8w
7GZ6YW0wrYvovfne8xWtCqBaSegaQuMzrWcqrOnJ1OPdUFMPs5iOqfXGS7dO7V2w
oajOWPH0tMX6AaIDURY4xW3j9MN+9FyocdanNvzV/3S8g7W4e8ybXIZGi1DxTtOi
Q6ySbbFkAVzu3ejVUydTmvJ2qqnJ5cXejTJpwi43Pwl6VT/IK8r1dvxqHorQdWz+
5gS4IEC4T4cv8gRtFx88MTnph/m3NcVHAEiIzOM8wXBfMm26w2iy/6SWEO5uPqnL
dMuvX++yxZbHprJ6VK7U7oBvOZM/C3JSVzMxdXlLg6Zt9AyTTFZUv23nM4K7F/+h
680CcPPUaNcFN4hHhQ6fGDV+4X9PGByR9StPxNSw7Dl+2s8pxwx0ToVQ5riYGkNR
Mne0udvZ4EURAw9W2Iq2MyEgi2/1uWbm4iuFWOGwFV/zi4u+9d4jPYnTkCGiRzBP
gBm6ZWgiGVSv9Pw8IOsPgpLPRwmcQIcq8ZtxK267YXy0NbnynLoeRUUEQdee/ZW2
uisdpa33O7ZXzZED94Jn377Tzzg6KZQWxjpc4o/hz+zTtF5eTJtVZd//5xpmDZp5
AE6kCz0htNgdWbuRCIui6p71dG0Xemy/3g==
=+fk3
-----END PGP SIGNATURE-----
