-----BEGIN PGP SIGNED MESSAGE-----
Hash: SHA512

3f4850762b465c02dc9163832fbf3f4f2263f93868821edbbfef303e9374f238e3be65bb35ca09ad9bbed76af466e0407ea9c3e3eacd07db1efc618533f1a7c7
-----BEGIN PGP SIGNATURE-----
Version: BCPG v1.69

iQJWBAEBCgBABQJqlnfwORxEb2N1bWVudFN0YW1wZXJBcHAgKDIwMjEpIDxkb2N1
bWVudHN0YW1wZXJhcHBAZ21haWwuY29tPgAKCRAZk16U4WDEkBvhD/9GTr5ko2DJ
OY5RJfqqaDsf+K/3jKgrxPMn7JwBDW74Pt8tYN3ZheJwy3P904FM5a62Sg2f7JwN
69XY/DZS8q6V90jiKwIEhRlnjEY+rQxS03+tLne2GdUiVVHeqj3CVahT5zL4Ujil
lYZPLXvG0mvsBMlNnuLrq6HovaO+9+7ML++V2GRvdRo1fx9PLaYGsg2YmwZ+GkRM
l1z1nTaRyOwKeAN9yjIrkgRPKIWYtb6hEFGeOhOlUPJQBhKYsqMDUJHyYRgGWc5G
Yo/PoJE9UUVe9gfzuleDqTZRUPNpdXOBuggMUpnTM52B45LpZ1FeVomChhT8zuWS
Eh8H9XyiaOl/lKRh34qg+U/VFaE2Y9dsGx9pRhsxZS1MLs+WTpziLQWyShiPFcEt
dAL7hUB7Sklcv+fenU9e32BOwdv8yjF/IJ1zVc5oXUTAQavx7ipvp35NMm9ihv8m
IR2JvSXmT5g9NxyMZT/Z7HrVhrGHxzIczerEJejeHviyDyq62/07swmhaJwDGQPr
8YLiMfdmOGiNEqUg/RzhSK6nNIJmRlcmJOs+nmO2AOHhgB6OTiS0A8PuPYV5ft08
Viz0vxNk5D4yNztUfDRNKyaA/EXAYSZKG/EOmTzVg+CUZBrzwdVeFc90hWXDScnP
qyw0O5FuJBpOmhlLvf+myxBlH+PEX+MjbA==
=nScA
-----END PGP SIGNATURE-----
