-----BEGIN PGP SIGNATURE-----
Version: BCPG v1.69

iQIcBAABCgAGBQJqlzzQAAoJEBmTXpThYMSQp6MQAI5QAVLwEO6akxgqtiAUlI91
j/x2TWBMkhcaw/cAipZRxAlyVDWgOPrOAWG/Fpe0yFrXpBAr8WQEYjn9Lw3Z6gvP
VMlrUJj5gZiMtmFKGuOZ9MoM3wlNcs4EaJe9lmD0IZGoFzXZx7esB0X2OAzpHeIM
We+sBOaPJzEuEmiB0Hug9JFqMRXJGzkF7eryQp3kIDR7TubEBDjfy+7fzLud7FSp
EJfzGx2L26B1epzC3AtAnRRBFwcuRzuaV33qKcR3vvjlPNNzusqda2JgJNNDzryL
hf+KDNTsar5rwcYGpHcQ8Ji+KRM7GsYYdaQ8l1fR0RXiqC3u0YS6nHdw41iX4TXt
GJt8lNQJa+QuLkHHmzVTU+12keSdU6TgkKJYI9BCoKlNq3Wc5VM/Q8PR/z0LPD8x
HVKqglzbjXGoj29zC0aPmdtkmPs1IvoGKBDnX2o5AcV6JMix068uKgfsYfM41WCd
w7BSFn5p9Mf7fhm6ApzNwfbUtc+itx3QAx8IaVJwYBFO3VBkh0l+QkFwjLZvAdZf
f8focmG/DGxpJDFPK9lBwWCxpms1wSvwS7dn1nK5LZdRpbuMH+AQw54r+TAixodi
nCU+oNmnPNZ3hvpIX4pbnHPujPYc7C41TpThyE8+dyhaY/VFSRM8aXETL3DwXn/j
TcnvxEhNQrhe0uGEiNSQ
=oJTn
-----END PGP SIGNATURE-----
