-----BEGIN PGP SIGNED MESSAGE-----
Hash: SHA512

f4af46fcfdab2a8b9ebb8f8e6aee561b673a43bc1f0e6e9d3e40deb47c03366bea9aecf2a9e5dd757b2029ff9360cad1aa74566aedf325f14f6c91eee96c86c0
-----BEGIN PGP SIGNATURE-----
Version: BCPG v1.69

iQJWBAEBCgBABQJqp6mAORxEb2N1bWVudFN0YW1wZXJBcHAgKDIwMjEpIDxkb2N1
bWVudHN0YW1wZXJhcHBAZ21haWwuY29tPgAKCRAZk16U4WDEkAj4EAC7QZP78hWV
mQckpE3ayM5ZbllJs7B7wbxG++EmZv07OXwiHGLuUlvMPmW6JlZRlF454727tQ2E
/6bKcGUwsEwJcRzySkfcaJ8Cnu5ajJYVfZOD8U3UYPq8xbWhfv97Mq5GD0PhiOO2
qXPmx+KFiXPb0nI/xoPhW0AaI4ozcBKpDBUZSuc4glcFs69/Wpzt0bj398LkEt8Q
YC9z6HssX+5P7AXyLfWJft4eBGAHsgZHX5q8mEqkDQ53XZQtfjMKxM+yavb+2GDG
ifgdw9wOTKZyKMl40r9qJZQB4v5AKdAmDofa3VTxYcnS6Nnjl7fX2XgERYLHKaRN
LN6b03lynp+hqp85gE4Pyk7irfBA1ZGPdqv1IWT67syDjoitDKsnUl2Yvetn1dkq
OaKCyO3xNa1GbntrDk7IhMX37Oty5pb2FDXhZD59YroLTB3TYXGKBiXhk5wvIiEN
g0uS+AQsUbK3zYqG2JKZavlnewvrU82niZK6TsrImEFv5/yWbtEf3RYRwY5GaE+0
8sMSWur1VmHEkZMfs/UKP4cydVbx943SOa7DnB+6/TtN5ttfeFzOn+ujNCsOYsMT
vAyjwvpBpHTaq934gRRz85YdYjfPNQtQ/xW/iKRPyIT8kK8G2mZDVExy1311z5IG
gJBarrrJ3FN3J89use9v74bi7xqp1nEBhw==
=YHAt
-----END PGP SIGNATURE-----
