-----BEGIN PGP SIGNATURE-----
Version: BCPG v1.69

iQIcBAABCgAGBQJqtycgAAoJEBmTXpThYMSQ6nQQALbIj7dFcwkigNdlk00NWt1q
hA55hTknbedAcK4YTl9YF0VXPYBw+5Hqb+jNxjiankU79HGzrZC6d+ud+5+iDbom
9CrrdURRktvg2JKtTAwBhoDwIsm+5F+t94AKgdQ5NhCXCfLKdOp3bII2UmJZE56Q
5LCK1PyRz9c4lcxW4OXlAkulCiHvpx4ihOFNiX2RC3dIJ5f9BuAHLbOgDYx4Svci
84BVmjXRQN7siUQqD2t9x2PPcHUR4J52fQ6bFrMAKe4Yj72f2lSXXjYsxLoaJkqP
+VPqXq/VHQNksUumfRZAXTypRSmzj84pymDjc+JlXrRXpmpBYYZy9P1VR0A+fmkI
bjwVR63lyZRo4INvBcCUR6a5egfBAaFbL/tyWcaFFx6arx64DmOSnvF8ktly+7tw
I5mG7AmuXtVWC4+9mOkFF/vSSSfpU/GTyggEmaDa3vcgnlrYNG/hH6wTb0d0hAp1
qoZouuNhX4AQXeWQPzENIFDktYGbs/ExsMsEXXDz9tUrWSz2c+zQoJbXbGDLK6ZF
7SFmFkTF9T2czHglgN2V9zZl/13t8+RtzCcLXNdmBW2In3bWrrBKAotyAAIGZaWV
NYdbIa5vArWjyrHS5TIu6nKlyH10ExH0YsaJFj/jlo0Zj3oFlozsgraMH2iZSWrY
jdQS9olkxp13X0xGFihH
=c1Ur
-----END PGP SIGNATURE-----
