-----BEGIN PGP SIGNATURE-----
Version: BCPG v1.69

iQIcBAABCgAGBQJqmMaQAAoJEBmTXpThYMSQnkMP/2CJwmijhJ+ym/5nVzX75P6w
sZziw3TlfiVtb71JRKT77mGay6kcKbuYkMEqx2H9hNb0eq2CllFny0noMW5kJWka
zmqthN57Gvo3dJ+euXpmdejBMRi4rJq05nnSIgrEJwY+XMtiz3AJvRmlG8y4qiNg
jpKmzwYW1G6i7QdkTWITKFBK/d1XYHY2dR3Y6G0gqGqnGSMja3DyOGu2lzrQZDOH
d0YOPFon/4AhJvqeaOxoTxqpJ2Lrm310EBZsGqFv42brfWvfK0SCBM6vctJGI/19
3qHSKTMIkyEREidaDq+jpKyuEM+Z4va0uBd7bfazVNtPvbRuF/5m6kioNYK4kvj+
A5K8GNmmFpqtW/1HwNT/wzOVGnGL2A37m48BfEhQMiVvYGOY18zb5raK57IJhw3z
hURoKGCBZTsFD+ZqikIvbORriSBc9HTn3643bc3r9FD1grlyiJRqRwH4ZQRiCRbh
8RHyK8O6GhyCEVLf3J92q4IOwKmj/VK1Kc9aDdg5fKUu6n2z74tK8sXsEtQ6pfmA
KIAi7laSKtOxsKe1ktps3F1pGcZP60+RCf5U3EK0d6hGsIfdQA7pRz0upFSOqoRD
L29uMb2W/LXNL/YBrAI/vxPdcfSnwSB506Jr3ljusH6QqDXgphoQJg7gQV/7AbjG
e/5kNXp/EkT2a6JO1vU9
=kkV0
-----END PGP SIGNATURE-----
