-----BEGIN PGP SIGNED MESSAGE-----
Hash: SHA512

c73b2037573a7b02854d6d4378d136344b30431bc1f942df8935f125bb4c0737676a567e1d5b3e367c46ab33c3829ebd2bececd12a8fa3c53e39ca6565e554a7
-----BEGIN PGP SIGNATURE-----
Version: BCPG v1.69

iQJWBAEBCgBABQJqj2/wORxEb2N1bWVudFN0YW1wZXJBcHAgKDIwMjEpIDxkb2N1
bWVudHN0YW1wZXJhcHBAZ21haWwuY29tPgAKCRAZk16U4WDEkIFZD/44g2ue51ZI
brRs8/92ANpLiiLElb3cfx6hgHTHubfKLvZxmw/lJIJeIpH6i7P19Tld9yAzXe8P
XG5roB3DpLt5hgBpkx8JfXJ1tuMHVDFb/Ylvxe9ILKdqU4nj3jVqneg2KDYfCvDO
iCc/wWjNZzGTX2mGDAwSJA1JD4+ZODjXQjSOCH+zeOWr+0PjMLUyxr+MLvtHv63e
p/w4bERS9mt6kIEUXgMv1dyPhQG8e16LBQjRb6Z/6twI/51ovuLplhWWXoxrnZB1
PJOmoIAtcPOR1EQaNCSMvWzUbavGDzOJ6DG7wlVeIetL9TK5INhtCm9GAanZAjB/
Fa9cxqEuxkT3BKV3q8vCm/lIu7x52ghqV0JX5mrX5HXBx8phxpMGbIarMATm422W
CgfHj6kWkUwDDT5wxPQa8zos3w8HuxVzWV4l2fO5Gw71dM1DdiLhUi2bAH0O5dEs
FXhgFXy6cdpj4LlfNy3SEZxBLz7fpL/FFCj5a+5mcu8LkxDmFSGgdJja13T6fcU3
crtdAbBZMBlxedO1QoFnB7EVnGMlvgAdQBc/g7iqIWPPbOdaX+Q+Wz8gNRdsETVr
d9+f0iq09BH2c8Gpolewfz/aKuM2g2KHM1lnmQYXMDRp0objEStZz8kHUn8lDu+g
oNVOwkDYMmAHE81pnPJXBJ4DLveetNZ/nw==
=Cwam
-----END PGP SIGNATURE-----
