-----BEGIN PGP SIGNED MESSAGE-----
Hash: SHA512

480796b205ee6a08996c020fd8db00053613fef88c44eb4e6e867b86e276e115790eaa9ce951f5973aa8c046ba5dcfe6f3953a3df6bb8df117d33eb899cb2f7d
-----BEGIN PGP SIGNATURE-----
Version: BCPG v1.69

iQJWBAEBCgBABQJqjSFQORxEb2N1bWVudFN0YW1wZXJBcHAgKDIwMjEpIDxkb2N1
bWVudHN0YW1wZXJhcHBAZ21haWwuY29tPgAKCRAZk16U4WDEkOYyD/0UKpepk2Rh
sFLQzPpYTY6jPiSdrCH3i2KxRd4w1zxVgs1bzykLsq0sYLV8XJzyFI70JlzMf9AR
5/QLanxLo5r6QB4PDLeFTxz8X4CuZIHAzPgdi4EgJC7DQ1slEZLFzhIExaJ8/+p0
O6HNVSjCmGtpdWCdmICvSh6ltftCq8IeqzGK4Nb7BneRB0A1uGYQZR60MP4Py3v6
wCk5jUE7joIYCHUplUfuh+msOo2VNQGqdc454QFy5N+ox0cHayaTUsqheFmcuohH
ZLC9U4CT90taidLuW2r9ZrRCGGlCzvdrGBi3nBEazaU1htq3FJXQ3a0GiL+rRhY9
VDvyr8EBRme8JOBO+UXpM39C1QP4e7v1o95PxLFyfljYw3n1g1QyM+wqN+2U7t9B
6Ncv0SHkHhHUXWjVeetPG3WoYA7HTs3AfCtP9WVzSP18x+e0DrVt49HdQuNtclWJ
EcePCEU0lL3H19Z4mjAMI8MNbiLtCmVwc09FcLmoeM574jiOpBYkz/iSab7RlwUe
cxC67b4XAaWVaM9ggQOa4mHDgLuhCyRbK9d3065wrn5Iw0HQMSq6W1CWVJm8fshH
p3tu7Nq3k2uzMD4L7NWkE222rZZGenT5B1L9RMZHfN+EZeK9aEJrMb1dRXFgvDT3
L8o9rPQ4/uA1nLDsXmkXp24L3OawN1oo3w==
=mvSg
-----END PGP SIGNATURE-----
