-----BEGIN PGP SIGNED MESSAGE-----
Hash: SHA512

75452b7f4bc81e0a3b3b5d8fd913ec98dcfd074a91d369efb58505b0288df5abb0ff7aeead663da397760c90a2c5b47db93f00c0bc656dcc68c98cc36f13f1fa
-----BEGIN PGP SIGNATURE-----
Version: BCPG v1.69

iQJWBAEBCgBABQJqkejAORxEb2N1bWVudFN0YW1wZXJBcHAgKDIwMjEpIDxkb2N1
bWVudHN0YW1wZXJhcHBAZ21haWwuY29tPgAKCRAZk16U4WDEkD0REACtNGsdW2Ea
8m7mFJC5RWUwDFuSPZL3ChFLR+uLSEI3dPTl4s7xPHRWVoWV5t5OMMenWGVvGgg3
zsneo8BRrjJZ8naM9+ytpl4ioz49wEItxnsLkUVUxoPJXPMLMRgZLBEJ7WD01H85
AJZYa8Fm/O3OBL1ajjhGYKO6Grdqt7dM5FlZIZfzlJSIFffT9ERHjN0G0JJhjO+0
2uE9lxfBGdAp8UwYREXhwPOLdY4BraOMgb5wki72qORXUW14vltlo5G92/qi8cWj
U0hN1sFJpeE/p2G8ZW04AfGG4rFFqfgfi4pSooStNBwAQBGR0gBuJXX5a7PyatLY
Oh0Rtr1wp//NAT1s2YegRa7dDeztpuX0dft0cugaMODHlMjHhQQjWgaKrTzoZ7/C
w1a3QXkKH8mzkNBBOEkWRIrGh+mr8Zn3hExEBt+1xjVLLvI5rGE0MVV3COFZgtb5
5+ytpSr+LRN/nNK4ejvXLo274hJZW8kvfCrbkbsD44HzR/QBLfT77AlXHe3EPTNz
lLCa4I9YYJTvq9CbGRgzohAHFkO1heNM9b1WnlyFWkJB1mNisLMJBxrRIqenAM4u
56h5sn2yYy0FmaciommQwcZif2QDhkaGp/H/scCMpsZ430BIZie8WzzV45cIdwu/
11YeNCGfDtnFybPENL76tti4ajJ72oAYnQ==
=5mz7
-----END PGP SIGNATURE-----
