-----BEGIN PGP SIGNED MESSAGE-----
Hash: SHA512

209ce6842577b8e2245f4f14e158b3227670ba095310a4283665347502584e7bc1b753b739cc2fe0932bebd4fc20e1d4b2070e19ed74695fc8dd6708e2a43bb4
-----BEGIN PGP SIGNATURE-----
Version: BCPG v1.69

iQJWBAEBCgBABQJqc2wQORxEb2N1bWVudFN0YW1wZXJBcHAgKDIwMjEpIDxkb2N1
bWVudHN0YW1wZXJhcHBAZ21haWwuY29tPgAKCRAZk16U4WDEkP6sD/4xOSMgPPJW
amvUW+bkxnFoqAODLlsW4e94xjvh/3Qad03OUpUMHa05b+yxlU6XnSHmMuiiiZ/v
AsjxWVLCO3Fry7fEIF9wUNdTQt0n3KFThgHWfYWokohUOSCJUvbHQMY2P+5K7RiS
Qh3nKphwAAYJei9PbPe6SUoMdnoA0poZoz1cqv1+/xmPgUUwJzGwjxpMbTxkpv5o
2VapaJaAohT1IOf+JbDP0Z/iA46rL++JhqMftGyuS62YYuYZni/3D6hsneLtMv4y
gqyCJ4MspFlmOIiXIrZ+GkkDM0rhWWKRuIbg57zM/DIso/Gj1FC8bmfegzg+CZb9
5Qocl1K43S9sPsvVz0okSke5wKPAzQ/LGgrXYBwVYptXGz8FFHb32vClDKgpmg2t
EFlTRJCUB+klnWlVxFbhNxdmMoFtuzcNATj2nEzwahPuelBFozvwQTRjTPVvfwy2
RYip7hapVDuL0rD76CnAPLfFLi/mAlRYFJprAdkRjGZ8TH45S9ENTJq52EQt+hIo
xT7sRx6gya/sK0XzSXHohr+u25JBgM2NuSLQfsd0BpAaYPcrFj3kLKdvAeRI4Ulx
lCyrLMEKcREzDOuVRv+l74HqVpF21zJyDaPBSOJl/qMoGCPnUzv6ulyD0PQAX8a3
GhKvgqyAYZoY68bJEDbAuVwEf91q+zOLzQ==
=q/Ku
-----END PGP SIGNATURE-----
