-----BEGIN PGP SIGNATURE-----
Version: BCPG v1.69

iQIcBAABCgAGBQJqg3ZQAAoJEBmTXpThYMSQzTEP/Au3w3TkzYQ75vOjCWEfLSfQ
2Tzh6IT+irRslQLQHBNS6fsao0yntDdpEu+rf3wQtSyIVVSTGhW/x6FTnU1STxjX
ae7R+KqX/ryTKo7TekEmScbZ3qk1kU41eQnSBOb9Puc3lVsXP+dhwmqZnMsjGK54
Oya9crlM5pv3CcgKCxMcxmOoSc4Q/m1T+raVfERTuoyRULuTJOJjiVdgXlAf8l0g
WkWO4Lcw1j18wwCOicoegbBuw5zFOpUxQsyaTbfDLWHTgbDaLC27gAS/H/Vxtbi8
OoYloV9c4jflfeOL11wNXPMJrYlM9NnrB6k9w/l2gagusCa4yLCTfbmzUSIPCnsz
jNq8jLk5Rxin4UcOlS9SMmAfUH6IXRkfZNSnLhru/sdt24QlWLhOX0HLmzvaxk32
BwxNe0ga2KKY88rSVtrCVpW5enEvXsizaisIQaAM0ZLdaCV7zrc/cHQBL4gq7W9Z
ZK6mkeY5nAwMc8pIAd10+xQg9YK8USt2iEQXVIpq/a9fL1K3DboERkcdUw43Kd/t
wa4l9xdtG32Mmi9/8gNcXsgW+xwf5J9i0uKjkDXlogbmHSU1HJVYybsl236nRkVi
i+jCoVMLM6whBpKvidxvjx/N1bBz7UyNVTMPyLzvJQn1U22qLM81t3P8xmaJ/haE
CWT0mSk5Rx7arPne8ZGM
=HkYF
-----END PGP SIGNATURE-----
