-----BEGIN PGP SIGNED MESSAGE-----
Hash: SHA512

f5842a19626012baf1822756ead97216a6e30f0236815641857e6547a163a7e84742b1f457dd1c68f2a81c651a93ffe6a51ff33aac374ec3b94569f4b23dacaa
-----BEGIN PGP SIGNATURE-----
Version: BCPG v1.69

iQJWBAEBCgBABQJqtVcQORxEb2N1bWVudFN0YW1wZXJBcHAgKDIwMjEpIDxkb2N1
bWVudHN0YW1wZXJhcHBAZ21haWwuY29tPgAKCRAZk16U4WDEkIuFD/0WojjmTcdI
ubUYljp81IT2RYcsYtKJLfpgjDDSygKbpt1IZl1i5if5b63efDA4zF15b8cr1LJA
Om45SY03u64Vz6zSrnWZjR0x/gGjUEOox9M0+sWlC/ClNJlkHWdc0fSag5tUuTLn
Chj/MwGV53PiRL20YlcYiZElJtqJp5KRr74JaalUmFTf81pR7NwBjvLtMSlK5Kzg
PdeeJ/IPggQ43kaeggYZs/6M5gGAmS2vVlT4MpAfRpfzDMV48D6Ksqxr9Lo+uo0j
/uEwEVFO6KsrIGaHKwfvkp8JIy8ACvmzx/bBsTaUGVjA9U2u1/bmneTYB1OazPmF
g2Bx4AVATNCs9//CMZJK5oUfRJkE96mdxH8zVPAx1V7VAADSbatiwS1MD0fsFxIK
/HgTxRYF0qQoj5rShFEnbVSC2/FkPy0BdJ7wBhMCWx/j5+ANalX5IZG1ioOuWuV3
/Wqz7rirE27RYmSTXCjF5sEpYG5sK8Zzd4tkl9YaamdRPmPXq9+VAEStL3EOVs+K
MZPuZmrmZHjlFClaSQUorNjxhhDoCmI9V8QAbNH1paZCh0sQFiJ6UAgD+SXXYdxX
SnwHuN4QQoTuYE37Xpm+S0NIPUqWtWVIBLedJXj3Co4O2Nz5w7JFbxZndGI8YjRZ
z0oDnNV4y/YNWDZW3znAupzkjKo7jA9m7w==
=pqw3
-----END PGP SIGNATURE-----
