-----BEGIN PGP SIGNATURE-----
Version: BCPG v1.69

iQIcBAABCgAGBQJqn2wgAAoJEBmTXpThYMSQXncP+gMKqqC+IA7s1G3tRJbOYme+
fMDMzDqLLuMYOGzBWtHMKmrsfbA84q7LQ6wz8hmQTa5DQjTucAvFdDEx7JnWfpJ4
TJmspEG+S87SIEdEvuhbQiW50nVqdfSRcP36mjqb2Y1jTBuCW8yhgSkUsYQMwXpM
q/WcEe8LTR+E6NBryRfD8TMVvCx8bBhMkVVDICJy13xfcM6hAqZfHim3XXJE5D3Y
TZ/xbD0EabJ2w1PmZvMCKrhvLfcxImBpGqw3mVHxR1woxWgJtV26cQFlEv8D+R0r
wnYwDmE58a/MFMmGSZxNFoTP463q8+eBtoQ9JpJp928gldfKX3xphwdJxwSrIAVd
ratG9cwh+Hr+f48bgrexXqd7ZCvbp3wLkLjeowtCRHDUJP6gLr/ANpjrFmJ8yJ2Z
LvAmsiZzLQxLbcxTmxruDP/XZIKUVturGp9hBp2nmFK7oivlTWUlSrguocd10FXO
d7EIl+ZbV2abnkPjzq4Q6dawO5mbHa4Xpra+FsJ75DTcFTXPCkHZgEi1IJBDB5H/
meQdNoNJ7uvhdfXXc83ObisgYO3bzKIWPS5tDXoT1/mevDNGlkfpR63HQhW8nGLz
S9Oqx7pZMVkTm4b8aJ78FvCF/UNJ2YZ3pSXf7yJ4UwPWoHJlFumEYuz3zdST/vq3
jqXgtiFzvx43VnVUStjH
=0ibk
-----END PGP SIGNATURE-----
