-----BEGIN PGP SIGNED MESSAGE-----
Hash: SHA512

145f477059342840b6d7b4926847be4694e316ef09e8d954d38c7f683479e4eb2a7bfda93585b1dd00701da98f7c6aec431f5e4fd6524d12383656f31ed8e898
-----BEGIN PGP SIGNATURE-----
Version: BCPG v1.69

iQJWBAEBCgBABQJqeLIQORxEb2N1bWVudFN0YW1wZXJBcHAgKDIwMjEpIDxkb2N1
bWVudHN0YW1wZXJhcHBAZ21haWwuY29tPgAKCRAZk16U4WDEkJmMD/41P+p68MRy
yKqqnU1p0/3uX1ybBnWIKx/I39i/qGhhcL8/YhRDSAjjKne3xIRrRbcw1z0UO5sm
S6ygYqApMQyCVLGucwdyUiRmK7O1p8hOMVf930S96tsN/UDa2+x9IEGtaGCmsaut
KQHpl332gZqZYhYtqb5HXtWdsIdaO8qAEG8KwzpJs8hFrX+FkjeTuSo73t2EbDvS
q7pXTfc9BQzv0BVt/NdhhPYt4NkITXPm2jtGu4hFcfGxMEIwZfRijvB81BYSkYk/
bN75H+U5mjK8lmBX5DzLzPPDcX9mfXIb+1c2E7IFPcZMSQ0APLobtyejXBmNs+mc
7/1eVS2LYY4PC9XgIe51YQe7wWKsSShJs3lHNS+hoplaNeAmDJ+MnWACCOlTUQJ2
U8KDz1CiwfaG7FZY25z0UVsrpyXcEFyxwBdrF+mWQPEmUjQ8XT0rjEnC2iXoEVGG
Px1I4qquh4xOiQgM9AH6ElctHNXWP3Maz81Y4ymZBzUmR7xdR7vXJPueNSs8EoOl
gXi2dW73lv2g9a4PXpzpLXJo79yZd1p5HCPVn2scvjQhGUxLfQiQFyIaXeW+rk8x
iaW5dKCxNjACJs9hdWfBBB23qslwvJPSgdHQRiSQEXbq4EMwjFQBGF78dbIski0c
rlvsZA4W1EsIsGwBBLHx3LqJYSH+B++xtA==
=L6Yf
-----END PGP SIGNATURE-----
