-----BEGIN PGP SIGNATURE-----
Version: BCPG v1.69

iQIcBAABCgAGBQJqtxkQAAoJEBmTXpThYMSQkcMP/jVtzRbZDDmr394HiwbxOo/M
Nd0bqwUUS6ITyIW7e6/JT2z8m6D4jlgBvyH2zm6mg0CJrOShzK3758rMnI1ULzaw
VEVeut2XBWKcg6j2eGpoh3TCCveyUJMxfqpY92gbNoqAtorewsu89tbQXAXot2T6
LTeTfSIvdJpJQQZr7FbXZHMDVwOsxkm8dAp3u9V9B5xMQbC3Cl4NsBhgihDSGOo3
yIcgBlLXQi0o14306XFvABxj/hDY9Pm2okLuSjredC+Aaac35LRe4UQwkREfZFM5
gmcrZcYGq1hu03IAsyxvQaJa9TzdJt98KGJq2b7auKiquRRCphgTRnhn0+tuCZeV
l4KjyO6YgMKLCwMqwsmXpMkon8rfCJgTZ7KkUi6z9M+Ks6BbBDtfqBWTngPgUABo
IZ+CZr/IrY98i/aNgugR3veUqhu80TnxHZnvGlc6zR3M/IO7rSC35mYKl9tg5DTW
wUlSHg4I4fZUXa9FO51D7v/fyahYfFlFlZU0F3mVWaQj2lpAqDorh3WH4B7rLwDv
G9ef51wh1WXvm3bLDP8yw37W+uNigAfSXGniu5xMqlWBDulwmKDbuBI9aVv2iB5q
oa93ZoSkK45A+saDrFYv21QycauJJ8vUG4tnj1YNfbVdNcPdB0rAtAJ2F55x+toe
YHHGop43hatsQsqWUzMe
=amLL
-----END PGP SIGNATURE-----
