-----BEGIN PGP SIGNED MESSAGE-----
Hash: SHA512

1375199423699d5a663f5e0beae88285f9b7080c66d063f274b74f6247e33fd7732b2dbd8aa83979fed15769c833a33186e7dd582a2850075bf3fe9dcc375acc
-----BEGIN PGP SIGNATURE-----
Version: BCPG v1.69

iQJWBAEBCgBABQJqhSpAORxEb2N1bWVudFN0YW1wZXJBcHAgKDIwMjEpIDxkb2N1
bWVudHN0YW1wZXJhcHBAZ21haWwuY29tPgAKCRAZk16U4WDEkPcfEACKdd+yFp9H
Zrg7vpE3nlSDCD/Yvl0tB0elRBHZh2jZKyXbUl1S8XTunk73ReqhWJgGL2qB3NZG
qu6Kc7CMtq32CfuExGcxNUtu5wEqzmvK0mV8u8HkKEer+/7K7HZEuLLGvOd47xBc
G9/YQnZNUWytApaqTcr6YMmyv0hTS9gDwxuh8uMAYjhPq1/vGw/yw1joajnDe/Ps
KtTW1VCCEoP7MwiHc+PWcWRtZSm4uQxpMBymvJ6vTGyureleHrwL0iKWUdWcUh3y
4cZlrXiozICkFQGhqTKbDSLx44fg04Iuc1onlpfeTi03T3ajV5OvwHDI4ZPNzL+Z
2lPW0sxP+R04zu6fBPSYn90OJ0dVyBJpNjXIUM+jicGrvOKzIDDI+qPaTIqzhq++
NG0UI0SGTOWOL7I3hKCICcCNSCXWzNQUqWIfg0sSvINiXklyzQwwhD+yGTrOYFwl
q7PJcfDTd2cD5Rkvvwg8pgTrjGWQA92Porv3+3OHT9Z4kwB6IYH4zMr8muoPWUD2
bS7BA0XjUbGrt45vfusQWu2CouNJ/c55ZGPja9rQlBEN9SPlhfBzh0z0LIuS+mPe
GIPDiIZoPWYTO6RGgFXS/vnmOfL4ASQsltkOMC+caVh0XbSlBAGNEFXCPew5Eh9N
a746oFO4wmg5A/YnadUpMpRJpqdb/ethqw==
=rEb0
-----END PGP SIGNATURE-----
