-----BEGIN PGP SIGNED MESSAGE-----
Hash: SHA512

925f54f18fa3c9da2d2ce8ce9aac361c9ff23244e51af3a6ec2c995a182e70cc0e3db33e0e0ebf78ae829e27e41b41b3db56fd823ac3787ec832793c988cff9c
-----BEGIN PGP SIGNATURE-----
Version: BCPG v1.69

iQJWBAEBCgBABQJquEBgORxEb2N1bWVudFN0YW1wZXJBcHAgKDIwMjEpIDxkb2N1
bWVudHN0YW1wZXJhcHBAZ21haWwuY29tPgAKCRAZk16U4WDEkAzED/kBZHmpWHbF
+p7q76Cp5fCoXV2kvB8LC4u/lnK81QxIAmsAdhZT0o0vKxSiFMu3CEBW1fKqwnIU
YYjwjgDkonHpkRWHMMsI9ANQNrOUx4x9w6iaD0cDC4Tz9EDdTvGCo/IxKBa9CDnt
sMVI3CfGHGZLC0Bc/jzERrRWu8cGOPvV9fZfs+1pBSUsYgFRU64LEdf8ffi9J7jU
unXqbRuXLlV8a6rIvQw0r7IV1yJrar0LSew7ei1V54xg9jPdlBYpvwZdwlZiL+Ko
bpx/BtOwWLPOR1kUj3ldZR4FI1+EXpnaZyFrLgpAIEPgbUkCGJKrpEsOZH7zeeuF
pABTaTbGzgrT2qxBwr+Xo6I+sU4bAYmE0ZfRE89jVj6NwlQiPXic6UIflNWdlB1m
LVYJiRQ0X6QbMDeypxyVxH5NQDc8cswBQyA7Mv4JM+PFGzzgjK6OmDkpsJToff/p
q7+ycY5ph3pNNxkHgvA9gQp1CCbH0DvD2n8ma/7i27gzjgyDzDI63ou98rEJbB2H
GZqQ7jeW+cR9W+yUQ2ldx/8zYD4/gIUuElvxToXPMIRzx3RzbLSoW+xc0QZkko9g
MHjaDXDUI9/s+piWfkLc0WAfk6Dqv6ZbhWzVtDAxXRTiXpnQrR9LF0H98dZu3W3v
1M2S+7MC+FzgjoTg/f44iqB5PHizSeNTQw==
=l2m8
-----END PGP SIGNATURE-----
