-----BEGIN PGP SIGNED MESSAGE-----
Hash: SHA512

78966bf7e081fe985868be5ee32addc4349f9d1e3e53175bbf519b3680496e6929fcd8c0cf3b8428f039bd8f1699d63f3f3b18975724b75349811e16521ec4cf
-----BEGIN PGP SIGNATURE-----
Version: BCPG v1.69

iQJWBAEBCgBABQJqhPIAORxEb2N1bWVudFN0YW1wZXJBcHAgKDIwMjEpIDxkb2N1
bWVudHN0YW1wZXJhcHBAZ21haWwuY29tPgAKCRAZk16U4WDEkPTOEADEsdeS3ej3
sWnGE6YANGdulUigCwP7cN+yLGQ0o3Q4tlR6je9qC/6dCJuPJkTjwPHIh073zyYG
AjZoRnLbEmJXOB74Mvw5TOBbcrpgXX5Y2xcRo+x5E/FlZwM/Fo1uzcEHR8WUwMOy
RSyv3WjkPQP2ALTcfJENttTK1+vhukBEQt5DxpmfIB0WsQEIV09e2wfblf9e7feS
+Q8K/pKCgPpUzOS2QNBXU1ol21cmEDkT7RAjTyZXACYzSrE7a2H2UpjzK5pSZFBe
dRRRuIi6ggNt8atusQIU1YceJRBuQ58c+jVOSqJWnLyZaRHSf322rpTo2yKleahW
gymML6kVwbWPoxBD38xyYFOAfFH19RKGVdzvjIziZyla3Uc3hgkWprUBzof9wZpb
o4scSlTJSSZv7vxOoFA7/fcVTTmD8V5U2rqDAWXis8C9gN+KGhyL+fjvuDbD4ULO
MFqJAu7xR96HrJuvRiWpQ36Xk3uSIIKcX8gkzyGRMuA7o5j82+K86nDmDsl6yu8Z
8WDnofscTmt0f9n6URNxm2hUCYu1LlHYKQoDzQBk+q94vTn5l6w/YVjII/Hq91ED
P5OUfKTcAGsNDxGGkchUyeG+FO7QozCJPg63CJll14Hgugeb5SoRZEpoUfiVXZ18
FaVqbXYRPQ9mLrd4i90pIB+l8JaWqtjLpw==
=GavS
-----END PGP SIGNATURE-----
