-----BEGIN PGP SIGNED MESSAGE-----
Hash: SHA512

f989aa0891e7867699604b2d954f148dfc3e1a0c4ae9074318485db8a8583a1e98ce52334a6878c63ed8e8b0f67f7d968ab3619f9a49c89985637d00effc5fb9
-----BEGIN PGP SIGNATURE-----
Version: BCPG v1.69

iQJWBAEBCgBABQJqm5PAORxEb2N1bWVudFN0YW1wZXJBcHAgKDIwMjEpIDxkb2N1
bWVudHN0YW1wZXJhcHBAZ21haWwuY29tPgAKCRAZk16U4WDEkGlbEACRpuG8B6gp
Ibi+SgVXAWRqDULTydUnzSBqUWSLF5GsNnvH0OawO8tLxI7OKlnOaR9nFYrENrQz
10nQW5KwETGWqb4TkXThwbaKTNax3S2faNM8X8YvxLrt6qIqcyapWkEjhpd9iAyC
5BjL9A1eCYj0expcKf4D14PGLHIn7UxS4548bO4FyV/xJFw8INuIcnu/EdqI5jf3
ppRQgiUuPsf897QB6kbEnkHpMvd3JgQbbCLEBRN5zaAUXa2qisTbaCsHrfYayqCm
a9eig5oHdCFY2Dy+F6eQrFDw1LqhPVUdDz9xllRJl1elCGmU8/yEicFS0n+EysU1
B/z8sq9UBciOx+70B5UDDS9lNQ2SB1GgxvI+2WLWLiVW5zqdxeXDcRnFr10YGaSn
7lTcUdFg5AX65SGDY70JZRgmH76IEhHHfw5nCVSMu85odls5/GmiHPZVF4aGm2cR
U/chh5pF0txhBlCoXTbmiOZOB6t6IoSqEoQUCSlnG5id8kSZDFMAKUE5WRZIZ4ji
Gl8AniVapTkPdi7D9PftJoAMruAEOLVykvpnRQre8XdXND5fY33NidOTEexiPORx
WEqqJSLKNo0+s5D5WpN/8taml1p/jvvyxwmFg2pGhHqWtlbqmEprrrmhdcbMdmrR
DfUhlBfxPMK+psYVp7OQbRxETPXFzezpXg==
=YHVs
-----END PGP SIGNATURE-----
