-----BEGIN PGP SIGNATURE-----
Version: BCPG v1.69

iQIcBAABCgAGBQJqmjQwAAoJEBmTXpThYMSQo7cP/1EKAF/zcWqawtLQgA3oqIy7
yEOTyGubpbGpQC4mfGsgdaLffrLLCZB/7H4RMJa2F+4EYdwtJVOfY8oGQ6/6N5Uv
oDYqF/cpCKpIFmKqUv6S8JMGzkHiAYUPTOvvmCHcZjihOY5PRJN+dxOXtRhDue+9
F6h4WhyNK5dgMLLTM8wLWoGUyhT3dgONaNZVQpYAbR8DLCAFjuVPPp0JboGCzNfc
Xi25ocHhUSZvzh6Z/GCTnE7DCpW1XMfDnAnJw31COBg/3782KJw7VTdaSGg9L+oQ
abbv4Nr9LoBXetHbgfg4QvdJO+7Zzq/uWqW4ercmq2VXYg1c1Ilx/8r0KDySsgRj
+Oo6GSnMNuImYQt+Dy/teQM9P/1+FfrNTn5WdSkvmzdV6vMDbfZc8QSrgBv0lWPw
O/U9iX1UKBlVjxtdNdPAiBaIZI+NQWPCDvtQ+GoaX2Dk4uIyvTfvkVyCOaHou4q2
qtdvoQz3pvY9Z2ztDqRzEoXLjJa5djzDhdgnRt6incN2u9R/jALfif3kTbzl3Jtv
NhOE2COdErWqOmZrNYUUG5vQvz8expMAs0NZVmBADervaROea6ClSAduvjJnwekZ
G8tciWrsjSZ2ghQaIsk9Ncbyq8PN6kHkthIpXqVpFtoQgD5VZBe70zC+j9fufvMw
/gO7EAHvc/HCAO6MH7Om
=v5TU
-----END PGP SIGNATURE-----
