-----BEGIN PGP SIGNATURE-----
Version: BCPG v1.69

iQIcBAABCgAGBQJqep5AAAoJEBmTXpThYMSQbIYQAJ8bhLLucQcekynGqVRM0a2r
zhSPHcGkGiYtvztymfsEYPUIIoJIsfqlidQsuKsJJQ4GIfcrxFBwBXBnOWMaQPso
LWEa09a65ig860p7IublCNZiI/Vi6jRvjSivalzVpn5hCv1kWFcg781cgdjJ7keN
cznM4IXoAqvEkgWR7ZWmFCGrGDIUO0tR+3jrpB4GOKV6Cct5kJNmqxpmFvE7yltV
8Sdd5c1UTJpXyo9G4LtVzY7bBt3Q3WMY+pSTXYs4tqJoaLGNqAlnnRL8D1vxWMct
6YW60T+soAeAFe4iMhWlaZ/9gzFsx9i2pt9OLI8dBBGNzHXVDHT+vWJ0byZNONlI
cuhbuwAgTGMKsHi0E1GSWyGMqwAWTzJMDrbGdssVOwD6PTZZtHnFiSn+HcdvIyD9
i4Lw8p80xNjkSrcJqVSZ6FJpaDmGu+lwRk3/4U+TxwTzqIECuS1Y0qBR5yUhqSDC
ag3VTmv7vNW4zgjy43kC4NMzlLWdRzz4dc03Fc8hBL1gMJJe7suoXk2LTkgmLW6v
dXF/1yuGd9XCpZVsc5nvViI/TGNLQUgCMpRDPrljg3Wra5ZajAYZ310i5rKuE0pg
XYOfGMb2ZDJuU+QfaHtLDcNCq8zBQYCa2e7eGkCqy6JAVRXGQC7gYW1v+3wpPjSD
Pj7P/OV5Nn/EdsqIc0SI
=eXP6
-----END PGP SIGNATURE-----
