-----BEGIN PGP SIGNATURE-----
Version: BCPG v1.69

iQIcBAABCgAGBQJqsRxAAAoJEBmTXpThYMSQrM8P/2NtwMqrvI+sxTgzdlOg/U2V
eiQoUmOhmf/7ggrpNdtNtn8bOiImpuBsM04QZFadFWMLqxCpJ94RAdgRnwNjg/GS
WtqUIvKRfwSZ/SaZGlrM+YMsnIleUIOnW/T4Ctm+eHf/zZmooNsuE4TEnNwT2vu5
Ls1SzNKwfvPOOdiGxnj703eVdAjvbBjL69CO0+2xHWaAIaviXPMHIpvI6QorVzDx
gBj5MyYB1uPT0WE17UDU3RfkB7Puu6eSe6C/EyQg4xel7O1K2pLKFVTR9J3HJbaB
TbJYz4UgiOy+FfjVz2iwUSWpK231H+rKWrJ62vJt53c8gNQ4HEJEixvpnCabIxOP
wqkx1HF5owRIZcyERsHkq4NnJrok0S1ETQnabUGZvT1OZ6S6ri483515Aa702M5g
KszonLia4Zw/B5UAoDdtzlO2dmXd8oSrNfCiKfUV+yBC6ZiPO4+g8DGhKeKUOpKC
5ZnwtlyhaWQFN7SgRFbU5SjqF6H8Vlzfc0auji79x6FdRgRPtbgDZ5f1kMKD1ceV
5C0LSypnmKVbXMOLEnXARknS+x7uEdkKBnNxi79ABfRvBzTzshTIRxX5Ok56/nHg
2DlgLuGwk0Yk1WjG//X7vdZ28I+6f6ieacb3IW57+tOoBlNTErKdL6lb3pp1SJ3C
7Bpc6YBCdb9C++4LZUNo
=PuP6
-----END PGP SIGNATURE-----
