-----BEGIN PGP SIGNED MESSAGE-----
Hash: SHA512

1e8d445e166f321e1c0cc65b479ba42ddb8eea3fb945dc791789810d486a5223f2e4355b5eed86af4416f78eaf939a950484bfee2aa741945ad3ff08b06c3001
-----BEGIN PGP SIGNATURE-----
Version: BCPG v1.69

iQJWBAEBCgBABQJqgDigORxEb2N1bWVudFN0YW1wZXJBcHAgKDIwMjEpIDxkb2N1
bWVudHN0YW1wZXJhcHBAZ21haWwuY29tPgAKCRAZk16U4WDEkO86D/98SXZn00gx
bDYYSIn8Og1na2hpZOrwLnXpm9mXWGAwE2nqhyV/Z1bsLlEYt94X+/oDCYx8MgF9
1fco/XKeeyUswAu6UJIZZLUiW1N1dJEKsfMyRPugG0TiKtD7xTM8Qo2unlEfd5T4
nc4/dFfYAvfJ/0pY83qhAuEjBe/8RDJt2fgUn5JGEiXsWRYpQ8bc8sOcpnfgfgx+
x9PhsGjobtkWEx2tKrGv8lUQRV+vdqOmnSDuDZuEPj8c7cRPNlYPMUv5omTRIBy7
t2Si+cuci+lRHP8n3ELYBND4hIvhn+fJ+IWo8EByYKIF0ZQaynIuYKTaX7TDR/eg
9EyOQS5P+T9m/pSTKVlAJu2k0jXKYC5TuXGVvd1fMVorHXTk0gx1zU4x2r0/eyEP
UrLj25FAMCjJqxA3peAyx+zbcco8NDJnnKda/ZQGa9vZMBjhZ/yw45i9z+hHkZI5
7pXXPDcazbAMrhfWglvBtY6VT4OSrT+ogsgUzbDudrnmvcGtdhtTRwi8XXj9xtX5
LSoOSxGuxuOw2hEWNBVLtA4JsV2Jp1mI1r5wB8H9jokQcrQJvNor6jnjO+8juaOD
JkWc659RToCQvwt5v3wKT1mRywUCiqgYugaLpk2aWC2YWONdyM/kYW8jNmpDaFXY
RetuU7+z93y71xWL6TeOxuIGfFpQFVg+Rw==
=s5Xi
-----END PGP SIGNATURE-----
