-----BEGIN PGP SIGNED MESSAGE-----
Hash: SHA512

c2d2cc39026c80eb9a0da54477411da04a55184e469a0ffef555fef69df5400280ae8a20c2bdd35e75874f369bb373b12c68633411ddfb47d56c755b3bfff60e
-----BEGIN PGP SIGNATURE-----
Version: BCPG v1.69

iQJWBAEBCgBABQJqyR2QORxEb2N1bWVudFN0YW1wZXJBcHAgKDIwMjEpIDxkb2N1
bWVudHN0YW1wZXJhcHBAZ21haWwuY29tPgAKCRAZk16U4WDEkPd1EACSyUTOpFNs
RPjH0L5DEhDYFfAqh2+zsmeV13sWIT0xPmeao8/BMNUmlfF0fpmwUnyf6rYt3XtF
8tGjXJHBvzvMFtPQJeAbX73DJcON+iTwsE4/t4MmN/ZyvvSwFFvbgqB6f256wC4O
DHBFAmbK496XVlIcPqXIsD0S4VRmc43HELmYx2wzVzCOgx6CcPg5ct8TRrKag9T5
3CU4Bcw67dtq5n9EaTDNyFIrkip/5SrchNG9/7gbKfyPLhJfDAOBF3zRNbWQ811N
ceHKycvfrHvzuwUHgdko2h4bDqzrVhASTy7n6/hBOej0hyUx83kbbuylwZeKlX0J
8eDN4dCEICPLV/OQNtO6hM2oxkoKvkj2L6gLEcFFU5tvboi02Ys0jZ18xNFF/RJu
4fDw7hdUAI6EOh7LDTXMFoosMxkiaPIaGOf8BXVvGVHShaEU6MvSDG2f+RS8hxFK
t6H2y4TZpt4vTzp4UnTSrwnL3gBfgODb5+rD/ciZMr0fVHprGPa3J8tu+681wTSy
QquFdhJHow5ND6yWJa7Guds75qx85R6cUlfTReHIWcQYKfp8Pku1L3k/aojQy3QX
Og4t/uizzRUVA03rGKgWpGqBeNbJTD3LX/wD4CDaRiRWaZGZq7xH8L1y0SJbtevD
luLeJ10xJqLLAgfQWtARXHfcwiyGAt4m2g==
=9FXs
-----END PGP SIGNATURE-----
