-----BEGIN PGP SIGNED MESSAGE-----
Hash: SHA512

79b32e2a0bc991b976a30b50159772c52c5ac4e6abc8b3c9155b0d476b84b504992024343c2366f0d87fca1c9c1cc78cc0f5e303e80ebb89c90b5a8ee553cb3d
-----BEGIN PGP SIGNATURE-----
Version: BCPG v1.69

iQJWBAEBCgBABQJqj8RQORxEb2N1bWVudFN0YW1wZXJBcHAgKDIwMjEpIDxkb2N1
bWVudHN0YW1wZXJhcHBAZ21haWwuY29tPgAKCRAZk16U4WDEkKLjEAC5Z34UE5j5
9Par9LVLhAmmzrzG8cu4axnaq6TgfJ9PBFPySqbVckCsNhqn1sVFXYGgpBaOC76C
iQxv7TQdd3suROB4uk/0grG1rRF5fB3kzdzBYre+xCaD5M/Je5J9OaV5M0/H/QYC
7FL/nNjH18oB7mVzYNpAEa5ODA01tG36QK0hUeBitOGH7mHenit7iZ1KSF48euIS
s80aLyJSrRVaFGFQPUUXwqdrAAIVQGdILMMMJbyZuJghmnb7dyFMgfCQlK5Ge1qZ
59vh4dQ24P/vaX5kksQGUr0GQCHhbSvQHxlgtJOKSSJlFjOOa/EZkUl4d+nPubVa
m3yi8Yy2TbfIAQon58AIgfUpqtHaqee4kJG3y6IFPDbltSCTmP9O9D8e/2AE6VGb
vmDXJJcHLulkWRrUkcrwEWjorpDFdiceMHMbREH+VZSp10hwByLgdtBTJ9OCUoFv
kQFv1678LS3+YXhhzaHj90WBUk0Z1MGoYl1UtQUYL7gy/WX16XdaLGW8Q/mpGf1M
1pQc1YjN7MEKWeMioSws3DrqP/ZOxMTvyBYMCzSzABKi5zrQezIHAgvY7R1eVxFa
rWJJl8f0MW5SRt0QjylnQTYxpmKchfwVjrAgtYIMWJfX/G3arscEzr+QvdEdMAjr
ox/Hgxmi4MvKStRtfCrflGaIeii/eh/8NQ==
=liSx
-----END PGP SIGNATURE-----
