-----BEGIN PGP SIGNATURE-----
Version: BCPG v1.69

iQIcBAABCgAGBQJqZdqgAAoJEBmTXpThYMSQA5cQAL138qkLRrHq6DVSVVGKfY/7
cRZz4PNO7cP7TQxTX6evzMSpsaBVIyIQuEEd5OpwuWT0ixTc7GTEF0fqGh8kGQAh
Nb5vkvjddmPzDLL88qR9gsE47EDnmdkqQE31SBcVvJPm62qshsdEMx+RVMI6hbx3
SoJ9bVRDKc8MpRlQC6LASTCaeYoywjRmtP7EHNFw1XCBjaAQGRYcLC2KTMiNVws2
7v6Tmtzwu9nJQ0SzjAqoG+VyLMKaRYlLnjWqYGyxyfX2LRbijHK9ahW2Ahb2R7xr
93Mt9m2/jH/sqZw2WLqHC2qzIVESPG9slF8B1GMZ3P2e98VfKiQb/s29EiWK2BIG
LbTfoKIfdChKJj4BvDp67NtdekCw1V/N471rJ/8zq2eE0DKOio7nZr3odSBHRxj8
DctpY5wRIHKQUWjAvzcGqLKKyMtK8co8WE3+MUBJg5gkqHyTK8H08aWh0wWpbrqp
qU1ozvjqDGVwTNt9y1gJI8dR/xDd40x8jqIVEzAiSnbQXoHgqiHvgfXsVApFRs0s
hfa6WFocAiYED3lfRLkn05zMD2qW6YyuL7swo7kVuVas+5E/N1+6UZzaBvQNLuDB
bwy6pLI9ktmxnAbPrch3sv0VLax8xpmIgB+0nMw5Q+ztvp9C/lFwkzs44MZsDvZS
+H7E4Ume3YzayWFo3l1k
=nRB8
-----END PGP SIGNATURE-----
