-----BEGIN PGP SIGNATURE-----
Version: BCPG v1.69

iQIcBAABCgAGBQJqrH8AAAoJEBmTXpThYMSQywgP/RhXjEx9VQiWYpoM2VuejOu0
hP8sfMRM2t6f2uf/BFLM0KsIOFI5cLSLkhG4fcxjCS5YXyre0TfU5WuvkyFJwTGD
Hztdk15gkypyJDdDYr9C0wCDXWiu2kG+E1REd5Hu/oe5+ywunimwSmb7pTq3T966
Gl/MFrhdc/wrOa9YyTX3q1HLp0iqL+VTCnMTeHyjzzXlhrJehJle7BeMMFoSsgrb
wtastiNJDqH8eGcZMSX5tqydzJKayHoYCTn5KM8ewmJNjC3ItJxPMnCckRfUUs0R
8S/qOCyrftHBxgqcnl78pNHc6S0e5S+cS44kl0Zsv0OojtQmk3WUWWq8qeEbIt3t
7jj9bPBM3LdunsAQqwDsheFuSiZ08mCRFdQKds2Fhq9k89sY8Nbgjtk6MRWGQTLP
MRc2Ye0thUw0QL2BcFY2of0mUtnWIFUO3uCa23wKhUJQ/CTNw9qmOkNGtX4frsLm
7iIyr5oMj4W8v2DHX59lraS5S6kzh/5n1TtS+y+FGeCfyVSyrcd/Oa3PBH1KrK89
6P/zWxen6+k18Bv1VRlibvOtpgfUkIwT0iMOB2ZsSNhsWs3gU7U9Dv6ywSpzycqR
LeHide4SLNjRVx+YrQs2/DrbcYBJlMWbKw6UzegZP2pBsvZ+aVz+5UmW7RI7t3Yc
IgeUZOzedgjxW5m+z+4f
=QySM
-----END PGP SIGNATURE-----
