-----BEGIN PGP SIGNED MESSAGE-----
Hash: SHA512

add11a28b2433dd306365445706e9e076d6862207c7a154329304c64d0a74497a7001e4db2a5ce936d5997f4f3a9bcf1bec96195a3dc596c780b3aed66ebeae8
-----BEGIN PGP SIGNATURE-----
Version: BCPG v1.69

iQJWBAEBCgBABQJqsSpQORxEb2N1bWVudFN0YW1wZXJBcHAgKDIwMjEpIDxkb2N1
bWVudHN0YW1wZXJhcHBAZ21haWwuY29tPgAKCRAZk16U4WDEkDPvD/9a9n+UM9lQ
CXHDVzW1ZKI28kkAjAnMzY5Rqt/U7mWEjwUTjQaN1yH64w+YbipBPUkPXrEfbGKz
RA5vAeQaocqeTsa7yzDCHGHFwZs3PYDBfIREv8itr3VcMsg0St2h5LJED5mf4wsc
ctATDzuH6raRO0rXFHkxI845aMX28jsLu4uM5RJKM0GCRFEosj0D5l28h8eKrsI/
FprJ7QxHOSJTxsNv4vY6oVgDFv+zE2SD8PTbdnVmrCHkiwuKeMhDJFICURSkalxy
0KkPlyOgSIrA2nt7/zvE+R0nSiFhcJqFfkkPL43JKm9njL9x/7dahG8is6szvdM2
mmWa09JJZvRqZusrQKRO/UjrF0OjRTqhHx/P49yVRcaZ1vm3rMJB7blw/DSxPMer
ux89F09/JNckqeouvHHUQc4ANheHxtSuY2RMEpPzlUSxBs1VPuA2MmMpv4WmQB5T
ZOEei9skJxftTopgzYCVUP3VYcC2IgkjvE2Ser2AQmGUVIKmGgb9pAR0Qa9/tyF+
4aezrz7ZBzF+oXrWDVGWSarf/VmbGnJyMY3Vj0o99T7ktx6ddIlWSONcfoHQHp96
05xQqGid/QAJvpdUfxmUoykPDzDcCSlBb73nYF0pJSAvII8SygNYxFUkewQm4zT6
bLmS9fjVvRlunLBt5V+IdlHKe4JvaFlEVA==
=uC+e
-----END PGP SIGNATURE-----
