-----BEGIN PGP SIGNATURE-----
Version: BCPG v1.69

iQIbBAABCgAGBQJqvi8gAAoJEBmTXpThYMSQuxUP93BFbZMxN7mvMKXxFH3HLqPJ
hFxz85azmgHvIfz3O60gCNvA4dJ5fZVqOVPibw6b0OXPgUrrvrfDa7WTPHWFePN+
Tw6S1rCuSNqSXed12cWci6Lkg37//egp7FZ1qmpYygPdBNFNJ62QAggDlIwvNkzM
Nhvwj6sfcKlCN9WqTts1nKTcy3rd82OFnuKKPJ31d2DR0LPTAUhQyEYH7sA3HRp+
E87v8e5DHHDWn5vbJN2pm1ywqSKwnEBmUgxD/af9m3/TWhLRlpMGGXxFagozWd1P
ohtOCQGLIVQSzvigqxezl3cSR26w7Smst5doa+LC2qNnVUdbccJIQPqzR4mEX7zK
gXN+rSmkBwbGAKe30UH100NrMXGI/d7K0NZKHubys6EqXpmI/vCYiA10vqPrAado
mS54B460rWamQKzFexADlsvMsO8EEFyHQe1nD+N8KKY40Q5jDAQm43tY0oeA5hmE
6yMQ4YWckQaW3e4k8Ix3Qu5ULek4uNInWLMfZLyVZZY2NJEZVZz3evJiNkVZhWnW
GzOR1x/bsf973geewM7Uli7dSPseELjI4wPd+I3+Z9NVDNxlee3rZTadZ+1iiTTg
h+ZjIqycyJzKtPilIjibGdzlchljjZ6yrWhQos2+BoYS0oGzOhlT9Vjl6vx4bdyS
mr+Edir++XIWf8+wZOg=
=lXau
-----END PGP SIGNATURE-----
