-----BEGIN PGP SIGNED MESSAGE-----
Hash: SHA512

4c951902e7e033e4cd1af5d37162805cd2cbcb62f6e068b0f5ea8c28c7b499363132959926fb22254b48ef86dc473b472ebb0f3fc16a42bdf37a317af3ac8bc7
-----BEGIN PGP SIGNATURE-----
Version: BCPG v1.69

iQJWBAEBCgBABQJqhf0wORxEb2N1bWVudFN0YW1wZXJBcHAgKDIwMjEpIDxkb2N1
bWVudHN0YW1wZXJhcHBAZ21haWwuY29tPgAKCRAZk16U4WDEkCLcEACDRbTWtZAe
hLdBngWxoKfEWBn1EfH5ccDs3+FrScJBoXntaHB2sE3Q90mhzozsM29zVI2931kB
y8+Tm4m9jiS7uFfKXvKRHYlRZANch2aAoNgCDmVwTB23HogYwYHlGdpDfsqhqyQn
X2dTXXhBoK4ep5jMLGPiAcuM/AwDOzOJv1LMgfpa+Fc59OMKnjfmouVW4DgqpkX3
kG97TOxRaUDm0wndbxxmeugKlWsaQGATm/vkYySWls5QpsoHhpj+gtY+0cyUXLCI
fkR/JXD8JkBPtnZqHuT4Erg8gaXJXInFQDWDER/850hP6XHD/8jnz24ECY0wDxIH
KzlV1OMpc1U6mwhU/BlPyqaJoI+S4d+bRXoSjFa4hh0NMR/cvNoyiC7QMpKBeAU1
jNQtKQN9YUgFqXCMKug3JXycrQtuznhj1CAVF9quw4k4TOFkkYOpVX/ChqLFch3m
c9mORhQAAriIke7FHhrwzS+e4X59+qotKM/ypczHGxkQe90661SbKHI1e7EnmO2y
i83BZIWaYGjmBVUS/fVDz5GzqBInP2R0o1R5cRxJYC8jqlYFmt1S2u96Xka01zm6
2yDbUpXIv/Z1LwC3HQJMmWCGH4uqI1BJootipUEy4n/fnZw8oxPmXyx/OTUJBoXn
FE3J5qvAE1O/WW7fCq9e60ibNdZpF94Tvw==
=qk3V
-----END PGP SIGNATURE-----
