-----BEGIN PGP SIGNED MESSAGE-----
Hash: SHA512

9140dd40ff8da21262a3012f6dc2e107319b156926e74e62a61b71b41a29ebfe08e63f47cc7a75c28932f6dafb9499d4daed59ab87e6c190d7a3216e4df192f5
-----BEGIN PGP SIGNATURE-----
Version: BCPG v1.69

iQJWBAEBCgBABQJqaQpAORxEb2N1bWVudFN0YW1wZXJBcHAgKDIwMjEpIDxkb2N1
bWVudHN0YW1wZXJhcHBAZ21haWwuY29tPgAKCRAZk16U4WDEkNEaD/4gtLIyI3/5
0vRJ/MFM33Ep70t5g9t9iXwU6tq/dcFliIIfhQvDR46v8jBrfG1on3+PDbgtTkUx
THLx/CXwl6yX6yKbyEPGrDENmo2L6o0P8kmpmfaxVc8p10R9JwBJ1UPKjvTb2ug6
MXzRH31DPFBwGdtieu90VBA0WFSHhPTsOHANlRhrIJlfgUXj+yYnnHfQ6TpyU+z5
2DbqKGWyHdHaw72FOx2sU/U0PkVqOHshtusnTqa7rfQFS2o3eVvXtH/K0gYNTq+o
q0QKdLlaAwR5+brv+ZnWVzSrhakXHN5ZrVMqPl8+OiD6247sZ1/2X54d6IZs12os
VjeGJtCHSEuIPyPaJXWz8WXc05AD6RBTiKVjM9gSV22yAau6g/4c5WI1Ojuo02dU
V5/Fe9+7EsLnokaEcdhk8wjDTntvh/4HnmFi6HBGy/Zxpm3DYofkvft1Qj+Rx98m
6l5E3oHxmq3t453JsmUIb2wcj9gm7hOWo+m41AXJR2JMEniXLjvH9LZr6yOkVxJd
M1yqnptCQLC8YSRaIpSyjdF3qzL9CSxNrHrE9meg1khGT+NS/4S1322L47np2x6v
XYl9zcB2OjVk3thxkR8mM8GB+y60xBGCRt51r+GW0d3NNBA2MnBW3ljwXv6Ls0uG
EFyw3s6gQErUbxyCdLWUNQ8BICR9JGkkjQ==
=RCSW
-----END PGP SIGNATURE-----
