-----BEGIN PGP SIGNED MESSAGE-----
Hash: SHA512

917db1e4d7d2a8fce1b3e31790dc6ff83f961c8b2f25931d36a57e49b06ce97f6699d93de9c9752373e56c055d04a81b92a2af9786d1e637830c3d7550477aeb
-----BEGIN PGP SIGNATURE-----
Version: BCPG v1.69

iQJWBAEBCgBABQJqhbbgORxEb2N1bWVudFN0YW1wZXJBcHAgKDIwMjEpIDxkb2N1
bWVudHN0YW1wZXJhcHBAZ21haWwuY29tPgAKCRAZk16U4WDEkCj5D/wORngw0hcw
T5g+8Mrpivdyk2otXoos8+R5FxsbEku0KNDroey7ZYTNKO1ioL3QU3BhuUT4Zcr1
PKoZEPv9NbEgnK5lxDYmHUV+dw84bmPdg19Vg7lmvfFBsCFbC6EEa7vxPcOmKYlb
nYt54iXWY+clAM4bCbZ7Nim2CQHmOemv1hiT3w6K0mofED+Q7+IknIddjNabtwfm
YEJmH5FhcPNjkDSsPq5TidX7SX61vJXSotsGvv/Od0rO0kp/vBAGS1zka83hhrF0
25lvF1gmlspM3pGgGe8Fo2Qbfd8J66wGAjdwvFlcDRMZajgsPK2Jeh2QgbyC7uyz
IGt9u71PN5a/yNu/VZvm8TvkDeoYzBQwCPdk72v7UWGj81xJRvuHFw7HpyZoZIrr
KjUe9UtKg5sM6MswgUs/pijv/GVPUa40y3sjWxeciQ3Itw0dExTrAGg1cpgsCOSd
/8LfjTZHl0KPle2aHf+5mqXllWqor9U5ZTBlcZ3e2mIStxMXh88FkTpIWMHM5lLK
kF13LIJarSwK7LTCd9G6cxCO/nzuI6g5yrZKe1lr15RA0rBe4Q0D906TfGHQ8WiJ
svUN2G85aIt5xp1hU05EKnK+KpewCKKWzyuS4mdhow+SRkJMYASCMhs3NhkdlAkz
+oBMUKfxPMHoibsh+cdGwbb4lITwy7QvbQ==
=0OKa
-----END PGP SIGNATURE-----
