-----BEGIN PGP SIGNED MESSAGE-----
Hash: SHA512

90b94c1f0dd0a5189044090b8b161b712491a2d51913a8412f07c5281097a2b8d8b45d26c9bcccc4f01fefc3c1ae7e705e7c627214649106a3d6ff1c06df8f56
-----BEGIN PGP SIGNATURE-----
Version: BCPG v1.69

iQJWBAEBCgBABQJqxrLQORxEb2N1bWVudFN0YW1wZXJBcHAgKDIwMjEpIDxkb2N1
bWVudHN0YW1wZXJhcHBAZ21haWwuY29tPgAKCRAZk16U4WDEkEBAEADLhfjaNPn2
zp4x4hv3Op5uFm5Vvi70uVf39OvybiEYTggR04EDRuHJSsf90j6nYxtqpFjDvIAW
8X8XVk6znk5dCi/8jzXpmde5BP6dJBGF1EC4OF5Kt4bMdCoabS1WKqFZL2f2m91k
NXRpSAhoAyFtewcInPwGdYZ/Y798U9CgcR3vMwJQFkNgPSw5y29qVeEaq5SjgiQc
kl+1WqEbZe0PXqhwJW0yiXQGTInMWNEl9xatBFd3ImKVXiBvfsyvky6qsz7tthhr
p5wHsUFbsWGcMbUs/s6c5mK3y1as5uHoq4dsTjB2kzRL1R/iieCcgRftMyeKPjOB
MqMIUPXWuBcMqd7V3r3Flb1DTBNnxvjbkiXRwmoEhzc2BUozFGPLYOkLnt5GQ+ft
j8iENM/iw7/gA8e5Xke5q4sET9kxr9AlwVCCgMi3N/Z0A8VnB/bh5kQlvh/Vdflj
kDgF55csGkHU9vsM+6j9+oEXkFuj4YH5jcjsZNGCOKuB4S3NXB7bAAGxNOOQDCdI
kxhR3sy7iEe4RgL5ya9meJInJnsHfkUCfpOHd9NqhJilJ2JbZ9gkY9VujJapYnhC
IuP2ikf6Dya5577XbfV4OW/Bc0276DAVatZt8dWoxWtxW30VjynEw66hZUn8ksAY
2pe16a0ULJsPYxOKKvxJ1b7cF3tJRXxpcg==
=DML3
-----END PGP SIGNATURE-----
