-----BEGIN PGP SIGNATURE-----
Version: BCPG v1.69

iQIcBAABCgAGBQJqagdgAAoJEBmTXpThYMSQXUEP/iGEPvc9cfKNeCn5eUP1XclU
ZNQXSppIpvDttbebbJKclOFwvNoqfHABE8cLMq2Q1VAfiiN8Am5BVV97UVTEoReO
zvL1fHmgFm1DzpQ0n1nOz7TBsthEwHKoi79YgHuhUx4cBiDHCbsoQ4aPrJZQ66QJ
dPBoAdY6JXReWSotgBDCW8Rl2K+Vd6nfznVnunKZ6tSFZFCuiWNE56gxtkV0Razi
sACZZrMdxwiMPLjBTi+QY2v6A1j7XW0Gz23rtcNY1kJMGpE50TenHee3NthDpqg5
c8muc8MUO7OhUsgqklG0bA/BNMrIi8D4aEb4hXj5hk4l0gnow7HC6WZ/EYhbsmr1
DxzaXpxpyMMPuJ2ZUe3jT5YwM3LuxF/53Divst+jx+MAuchvBXNVkW6Ls28xec6U
SWWe9edkKXF2sIOyLkpgKFNVELpxR+EKs+kx5pqmsG2z7CAxqp8hjzdI5LzbonFM
S70vfs00kkybMVkoZk4hcjxPjubwKG2GOZhf+VV8s4oXNJ+5RmrNvEGIpYC5ZUlw
aimAZ1enNvR4pZpPn9oOOOfOxd8tTxGEJg57sz11dN/kJr7q1PNLGKlWk+cfS4/2
ApuDxiJvfhNv3lsml4rcYcxEoC7pmmZE2d2H/Sq7U9EtxpmcUb0y1ZtgJn3P0kIH
bP1MW69tzZPubOmeAqAf
=V0JN
-----END PGP SIGNATURE-----
