-----BEGIN PGP SIGNATURE-----
Version: BCPG v1.69

iQIcBAABCgAGBQJqnTmgAAoJEBmTXpThYMSQSJ4QALcS0WJHm+90SUVgkG0ZkVrI
gw6pEVi/HWaqrV33SM/+7HDa/JPt+wfUsAViVRWETrcTAne6JMiuWbgQS5IZcf6Y
SKKof1qwNzNgO+T2TbknfBUOmYOOxrVlQjo0dEFhfwkOcJwLI4CqcL/TAghUwM4B
tR9nC+fdJLj+FelFAvIfNFxa3v0yQ5XzXPMXcd9M+Q1/1B5cW0OdQvlD/1Ht3WVT
3H8nWociYUDttrySz1Sz4TzptrcSOP5HNhWUWY0QGSjo3gu9xGKH3zDDEJ8FmcPU
/JLqCotcrGHP1iPqfVPTL50LT7Y5u6PAXJa9FerprOPzo6wHlgma9XM+86bKJzBl
aG6iyDpZCZe7xdCwoNEsycZ5LhpzRqWhhNxqsDGienA7SgHdXEUOWUaAukpNOZlK
gO73il+Jwxx+l6Z4d7Fwm2nP8BAye2EfFTz6cLNbyzFH8kw80Q5rNtFgszo4NNaw
A0ANn0n75uycIlOoPLz4cCTTmT9jIC1lhthri0xcM//ry9zo1gVrkd41Y58tZGnD
iwKcR8K8DJ8klCwDkV84hZsmP9GvJTY/ous7UELzBR4YPciQfiyrkTL7Xx5i+XDu
PtHl9bg6VOd2rgb1Z1PvuQ3tIjf9r522WlbDW28+i1qUbyxltUKHjIzOvvsVRjZF
R8qmXQG40dEKjmoUwDcD
=V8C4
-----END PGP SIGNATURE-----
