-----BEGIN PGP SIGNATURE-----
Version: BCPG v1.69

iQIcBAABCgAGBQJqq4HgAAoJEBmTXpThYMSQQXEP+wabyd1ULaea9QrLWnvmKRSY
YESpSO32w6nWaRwrco597pNe6bLqlMVei/Sxh9kIYfBLRDfVpTcFjN6WuerCaxPr
zlw4Y8LK0VKN6Qs1SD/KIQx6pxE+/Ft6QIS1EzyF+IieReqGj1QhB4pPQJ09n3t1
/rRZRjAYnnHwU/Uod5M6Y1W36D5EEa6Kvikff+6EgXeboWWRWgMMUkPUQTVT76+k
y1wrfckxdhjLv2vKq0Njf9izo4ZINEe5OiMXC1FqjAQnClxTiMgozLVt3hfR8VwJ
6/Kvs49W2DgpezcFNsG7jKQHwnw8xnGx9QKrc/Z6WDBYOD6vusyBPE6qOLByMusD
lgim5adZZSoOA19aTDIn4oxlxWa3wet3GvwhhlQBZURbhZX8rq8wsBPs0C65IyHq
yp2BmCWHCq9MLM5Xc0vuCIf+48UzqStjE4giyQ8QGGyLe3kB7pA0qnDFf3Ru7uSG
czQLLH8iel8LO6i4qHKZyVLFc3XB9wCLGDrDXAqEvu8UwfWkSPokC78zq41hL1B/
N66fyLH0od49Pn5SaIWNQdA35KvzrcOqEJxHjN/2r7ve2gxpMaVgnECU+Noho3FV
TlwxyAYWEdNoXjdPtsjmm3qHWqT1ElB2kwjltEARkhXZc7RosQVa8lnFJalkNo9S
hYse9G7YlvZiesu1jaVf
=CCsK
-----END PGP SIGNATURE-----
