-----BEGIN PGP SIGNATURE-----
Version: BCPG v1.69

iQIcBAABCgAGBQJqv2SAAAoJEBmTXpThYMSQ1z8P/1iQbGi1g1+yvaVBal57jaGH
pEcj7sdYvhBmc7gEkj+T7AsqltPdigPzfoilocH1HJMIVb62CowVbqwAUZwddsIn
+VZ7WjeNQ3BgINMNm4X7aLIcYsy1Scjpjl7LJpu1ZIHvmEFCS6xpMYdw86klmn/Q
+Y97lnUNDOOi6kiiC3KLzXLF0YcmQfLroqYUeRQrQodkbQEnxyewLVE61ddZ6vGY
eqfjQRVzWWOSG/4NHEvxOXKoYJfdb93Jy7UsF4Jesj0F3zl3CGelxTEJkViUbPkE
3gEbXPoqzecKdalr65VJ/8tHBcAHm3OMuqkYOhHzXLDffo2VqYH5FiKAXl2wJcfU
1RMTiSq/aInmfNJCKKTsudQjb0KIuIiVWSjeTjcKHoUEITpZ3kBjxSnBOkynFjch
BJx4wt1N9Zzugikd1FhxZ1qf2j2rqXfmBpYx9I4hmuQpussXWZ/2XFMpeKrmepvs
JfN02v9A4g9tNS74Xf/AkW+3jT+BLbO5V/mXACVZR+qfs8KzYoTRDb7ZvAFizaf4
86jO9R72axdpEpZoOJm0LXm/aCzA+BgLdxU1IAR41RfHgx0fpSOST6vhkIi+TB6w
7zzG93POb/DildLc6WC7+Z6GKurKX9riyeCGrQ1tlyEqOSkD66I29Rj2M33vnUXi
lweZP41qPUbvQWsnAAhl
=TCa9
-----END PGP SIGNATURE-----
