-----BEGIN PGP SIGNED MESSAGE-----
Hash: SHA512

f30640bddf3825152581c08b3db75ab93cb988578c9ac3640dd0b0efad84cd3ca21730349dcaa4216fa0f58936b5dc0ee637d5ab3b389975ef4702507554bd4c
-----BEGIN PGP SIGNATURE-----
Version: BCPG v1.69

iQJWBAEBCgBABQJqqIqAORxEb2N1bWVudFN0YW1wZXJBcHAgKDIwMjEpIDxkb2N1
bWVudHN0YW1wZXJhcHBAZ21haWwuY29tPgAKCRAZk16U4WDEkM4ED/0Rh00dbCgV
ZQbeg47kwz9/m+wOzmLPeYZcxs9aW2xswF9kXpmMf9DcuejKYcK/TLIwTc8xsDwc
tK5t+xu/q1fwBqZBI40OufGSe0A70U4ecUagwj7ht0MVqHImzvsKIDnacrdXTojH
Aa2/w+EqTLsqPeX5aB1keigs32LwSK3HLGktgS3RjjJHGzCmyveWtA6jWViA2/1P
CnbUgGi5vX1Zd5YFYFbaMAV7YGLl2XIpxS2QnDCyvyQG7eeVQC/tXb0kNoE9ljRu
vb040Ew6nMRcU/AIIG+PjuBBNMRJXYwJSoIzgik621BShsFM4cOlzgkkKYGoPfGf
gIKTkhupalapsNtTOKRZ3nMZa11ihvVDn0tABYrFDrGjY6l5rN1TzJmpkjEXeJau
DoiJa5Ofez128+WtYwKsGp5TYQfpqVlel2tVjp56kPAw4SkFp3pmaJCfbiUQ7/sh
CMDV2Wg45xdj9OA2WrklMzJ3J94+Hj4rWfdQfPv7gHLch5PljOThhWHYIcU7f+kX
6zOXXzSQYgb+Wnvx+Y2wdJ4F4ceXW60AFWRyuJLArJFV/Qq4u1bXkdPEImkSwpHe
j48xTQHXTCm/GzNmQKjQdo7Ro9pqvPIxWmZUcNkqAIPK0k7BSgpuuvKRuJJH7ePg
61IfubXVU8y5tWvUFzm3RmlFdHBvIrkFHg==
=KdYU
-----END PGP SIGNATURE-----
